X:176
T:B176-  The Gunfleet
Q:1/4=120
L:1/4
M:6/4
K:F
A/2B/2|c2cf2g|a(g2g2)c|d(f2f2)A|(G3G2)A/2B/2|\
c2cd2e|f(d2d2)A|(c3c2)E|(F3F2)||f/2e/2|\
d2dd2c|defd3/2c/2=B|c2de2f|g3e3/2d/2c|\
f2gaga|ba2d2c|defG2F|(f3f2)|]
